build/img/icon-puzzle.svg

<svg width="22" height="22" viewBox="0 0 22 22" fill="none" xmlns="http://www.w3.org/2000/svg">
<path d="M15.0106 4.85815L15.0096 4.85985C14.8984 5.04881 14.9288 5.27544 15.025 5.44566C15.1214 5.61612 15.3003 5.75925 15.5224 5.75925H20.4407V9.98742C20.0489 9.81984 19.6261 9.70925 19.1685 9.70925C17.2971 9.70925 15.7778 11.2286 15.7778 13.1C15.7778 14.9714 17.2971 16.4907 19.1685 16.4907C19.627 16.4907 20.0499 16.3735 20.4407 16.2047V20.4407H5.75925V15.5224C5.75925 15.3014 5.61942 15.1225 5.45107 15.0247C5.28315 14.9272 5.05939 14.8944 4.87052 14.9999L4.8705 14.9999L4.86756 15.0016C4.53871 15.1974 4.17208 15.3065 3.76575 15.3065C2.54473 15.3065 1.55925 14.3287 1.55925 13.1C1.55925 11.8713 2.54473 10.8935 3.76575 10.8935C4.17378 10.8935 4.54018 10.9952 4.86756 11.1901L4.86754 11.1901L4.87052 11.1918C5.05933 11.2973 5.28287 11.2645 5.45048 11.1684C5.61812 11.0722 5.75925 10.8956 5.75925 10.6776V5.75925H10.6776C10.8997 5.75925 11.0786 5.61612 11.175 5.44566C11.2712 5.27544 11.3016 5.04881 11.1904 4.85985L11.1904 4.85984L11.1894 4.85815C10.9953 4.53988 10.8935 4.17403 10.8935 3.76575C10.8935 2.54473 11.8713 1.55925 13.1 1.55925C14.3287 1.55925 15.3065 2.54473 15.3065 3.76575C15.3065 4.17403 15.2047 4.53988 15.0106 4.85815ZM13.1 0.375C11.2284 0.375 9.70925 1.90282 9.70925 3.76575C9.70925 4.05123 9.75056 4.31806 9.81769 4.575H5.16299C5.0045 4.575 4.85825 4.64814 4.7532 4.7532C4.64814 4.85826 4.575 5.0045 4.575 5.16299V9.81769C4.31806 9.75056 4.05123 9.70925 3.76575 9.70925C1.90282 9.70925 0.375 11.2284 0.375 13.1C0.375 14.9716 1.90282 16.4907 3.76575 16.4907C4.05123 16.4907 4.31806 16.4494 4.575 16.3823V21.037C4.575 21.1955 4.64814 21.3417 4.7532 21.4468C4.85825 21.5519 5.0045 21.625 5.16299 21.625H21.037C21.1955 21.625 21.3417 21.5519 21.4468 21.4468C21.5519 21.3417 21.625 21.1955 21.625 21.037V15.1835C21.625 14.9547 21.4908 14.7351 21.2785 14.6396C21.0682 14.5449 20.808 14.5858 20.6383 14.7441C20.2473 15.0957 19.7315 15.3065 19.1685 15.3065C17.9395 15.3065 16.962 14.329 16.962 13.1C16.962 11.871 17.9395 10.8935 19.1685 10.8935C19.7328 10.8935 20.2482 11.0969 20.6383 11.4476C20.8074 11.6054 21.0592 11.6471 21.2702 11.5522C21.4778 11.4587 21.625 11.2421 21.625 11.0165V5.16299C21.625 5.0045 21.5519 4.85826 21.4468 4.7532C21.3417 4.64814 21.1955 4.575 21.037 4.575H16.3823C16.4494 4.31806 16.4907 4.05123 16.4907 3.76575C16.4907 1.90282 14.9716 0.375 13.1 0.375Z" fill="white" stroke="white" stroke-width="0.25"/>
</svg>

<svg width="22" height="22" fill="none" xmlns="http://www.w3.org/2000/svg"><path d="M15.01 4.858v.002c-.112.189-.081.415.015.586.096.17.275.313.497.313h4.919v4.228a3.212 3.212 0 00-1.272-.278 3.392 3.392 0 00-3.391 3.391c0 1.871 1.52 3.39 3.39 3.39a3.19 3.19 0 001.273-.285v4.236H5.759v-4.919c0-.22-.14-.4-.308-.497a.59.59 0 00-.58-.025h0l-.003.002a2.12 2.12 0 01-1.102.304A2.199 2.199 0 011.559 13.1a2.2 2.2 0 012.207-2.207c.408 0 .774.102 1.102.297h0l.003.002a.593.593 0 00.58-.024c.167-.096.308-.272.308-.49V5.759h4.919a.585.585 0 00.497-.313c.096-.17.127-.397.015-.586h0v-.002a2.063 2.063 0 01-.296-1.092c0-1.221.977-2.207 2.206-2.207s2.207.986 2.207 2.207c0 .408-.102.774-.296 1.092zM13.1.375a3.398 3.398 0 00-3.39 3.39c0 .286.04.553.108.81H5.163a.588.588 0 00-.41.178.588.588 0 00-.178.41v4.655a3.172 3.172 0 00-.81-.109A3.398 3.398 0 00.376 13.1a3.398 3.398 0 003.39 3.39c.286 0 .553-.04.81-.108v4.655c0 .159.073.305.178.41a.588.588 0 00.41.178h15.874a.588.588 0 00.41-.178.588.588 0 00.178-.41v-5.853a.6.6 0 00-.346-.544.595.595 0 00-.64.104 2.19 2.19 0 01-1.47.563 2.193 2.193 0 01-2.207-2.207c0-1.229.977-2.207 2.207-2.207.564 0 1.08.204 1.47.555.168.157.42.2.631.104a.605.605 0 00.355-.535V5.163a.588.588 0 00-.178-.41.588.588 0 00-.41-.178h-4.655a3.18 3.18 0 00.109-.81c0-1.862-1.52-3.39-3.391-3.39z" fill="#fff" stroke="#fff" stroke-width=".25"/></svg>
